src/img/background.svg

<svg xmlns="http://www.w3.org/2000/svg" width="1600" height="720" viewBox="0 0 1600 720">
  <defs>
    <linearGradient id="a" x1="0%" y1="50%" y2="50%">
      <stop stop-color="#89A0FF" stop-opacity="0" offset="0%"/>
      <stop stop-color="#89A0FF" offset="100%"/>
    </linearGradient>
    <linearGradient id="b" x1="100%" x2="0%" y1="100%" y2="100%">
      <stop stop-color="#00AEFF" offset="0%"/>
      <stop stop-color="#3369E6" offset="100%"/>
    </linearGradient>
    <linearGradient id="c" x1="95.122%" x2="0%" y1="100%" y2="100%">
      <stop stop-color="#00AEFF" offset="0%"/>
      <stop stop-color="#3369E6" offset="100%"/>
    </linearGradient>
    <linearGradient id="d" x1="98.973%" x2="0%" y1="100%" y2="100%">
      <stop stop-color="#00AEFF" offset="0%"/>
      <stop stop-color="#3369E6" offset="100%"/>
    </linearGradient>
    <linearGradient id="e" x1="100%" x2="1.736%" y1="97.763%" y2="96.745%">
      <stop stop-color="#00AEFF" offset="0%"/>
      <stop stop-color="#3369E6" offset="34.64%"/>
      <stop stop-color="#913FE6" offset="100%"/>
    </linearGradient>
    <linearGradient id="f" x1="14.764%" x2="94.5%" y1="50%" y2="50%">
      <stop stop-color="#FFFFFF" stop-opacity="0" offset="0%"/>
      <stop stop-color="#FFFFFF" offset="100%"/>
    </linearGradient>
    <linearGradient id="g" x1="100%" x2="1.736%" y1="2.447%" y2="96.745%">
      <stop stop-color="#00AEFF" offset="0%"/>
      <stop stop-color="#3369E6" offset="34.64%"/>
      <stop stop-color="#913FE6" offset="100%"/>
    </linearGradient>
  </defs>
  <g fill="none" fill-rule="evenodd" transform="translate(-1)">
    <g fill="url(#a)" fill-opacity=".1" transform="translate(32)">
      <path d="M6,392 L1272.58908,392 C1281.42506,392 1288.58804,399.161501 1288.58804,408 L1288.58804,408 C1288.58804,416.836556 1281.43405,424 1272.58908,424 L6,424 L6,392 Z"/>
      <path d="M368 392L551.992272 392C560.833096 392 568 399.161501 568 408L568 408C568 416.836556 560.837689 424 551.992272 424L368 424 368 392zM368 552L620.326597 552C629.166873 552 636.333333 559.161501 636.333333 568L636.333333 568C636.333333 576.836556 629.173374 584 620.326597 584L368 584 368 552z"/>
      <path d="M368,456 L577.99553,456 C586.834555,456 594,463.161501 594,472 L594,472 C594,480.836556 586.831483,488 577.99553,488 L368,488 L368,456 Z" opacity=".4"/>
      <path d="M368,456 L863.004913,456 C871.838755,456 879,463.161501 879,472 L879,472 C879,480.836556 871.837384,488 863.004913,488 L368,488 L368,456 Z" opacity=".4"/>
      <path d="M368,488 L472.002901,488 C480.837855,488 488,495.161501 488,504 L488,504 C488,512.836556 480.830587,520 472.002901,520 L368,520 L368,488 Z" opacity=".2"/>
      <path d="M368,488 L607.493157,488 C616.333492,488 623.5,495.161501 623.5,504 L623.5,504 C623.5,512.836556 616.332521,520 607.493157,520 L368,520 L368,488 Z" opacity=".2"/>
      <path d="M368,618 L499.006138,618 C507.839304,618 515,625.161501 515,634 L515,634 C515,642.836556 507.835309,650 499.006138,650 L368,650 L368,618 Z"/>
      <path d="M368,64 L678.000275,64 C686.836679,64 694,71.1615011 694,80 L694,80 C694,88.836556 686.830316,96 678.000275,96 L368,96 L368,64 Z" opacity=".9"/>
      <path d="M368,32 L577.99553,32 C586.834555,32 594,39.1615011 594,48 L594,48 C594,56.836556 586.831483,64 577.99553,64 L368,64 L368,32 Z" opacity=".4"/>
      <path d="M368,1.42108547e-14 L452.002589,1.42108547e-14 C460.837715,1.42108547e-14 468,7.16150109 468,16 L468,16 C468,24.836556 460.828324,32 452.002589,32 L368,32 L368,1.42108547e-14 Z" opacity=".2"/>
      <path d="M6,224 L1463.99537,224 C1472.83448,224 1480,231.161501 1480,240 L1480,240 C1480,248.836556 1472.82792,256 1463.99537,256 L6,256 L6,224 Z" opacity=".9"/>
      <path d="M368 224L863.004913 224C871.838755 224 879 231.161501 879 240L879 240C879 248.836556 871.837384 256 863.004913 256L368 256 368 224zM0 256L1279.00651 256C1287.83947 256 1295 263.161501 1295 272L1295 272C1295 280.836556 1287.8362 288 1279.00651 288L0 288 0 256z" opacity=".9"/>
      <path d="M6,192 L1374.00853,192 C1382.84037,192 1390,199.161501 1390,208 L1390,208 C1390,216.836556 1382.84272,224 1374.00853,224 L6,224 L6,192 Z" opacity=".4"/>
      <path d="M368,160 L1684.99798,160 C1693.83565,160 1701,167.161501 1701,176 L1701,176 C1701,184.836556 1693.8281,192 1684.99798,192 L368,192 L368,160 Z" opacity=".2"/>
      <path d="M368,128 L1301.00066,128 C1309.83685,128 1317,135.161501 1317,144 L1317,144 C1317,152.836556 1309.83973,160 1301.00066,160 L368,160 L368,128 Z" opacity=".4"/>
      <path d="M368 128L905.009193 128C913.840672 128 921 135.161501 921 144L921 144C921 152.836556 913.831214 160 905.009193 160L368 160 368 128zM368 300L1071.99496 300C1080.8343 300 1088 307.161501 1088 316L1088 316C1088 324.836556 1080.84479 332 1071.99496 332L368 332 368 300z" opacity=".9"/>
      <path d="M368,296 L591.997121,296 C600.835267,296 608,303.161501 608,312 L608,312 C608,320.836556 600.833581,328 591.997121,328 L368,328 L368,296 Z" opacity=".3" style="mix-blend-mode:overlay"/>
      <path d="M368,520 L674.00446,520 C682.838553,520 690,527.161501 690,536 L690,536 C690,544.836556 682.842188,552 674.00446,552 L368,552 L368,520 Z"/>
      <path d="M368,360 L751.995194,360 C760.834404,360 768,367.161501 768,376 L768,376 C768,384.836556 760.844743,392 751.995194,392 L368,392 L368,360 Z" opacity=".9"/>
      <path d="M368 360L996.000568 360C1004.83681 360 1012 367.161501 1012 376L1012 376C1012 384.836556 1004.83651 392 996.000568 392L368 392 368 360zM71 328L1448.99894 328C1457.83608 328 1465 335.161501 1465 344L1465 344C1465 352.836556 1457.83214 360 1448.99894 360L71 360 71 328z" opacity=".4"/>
    </g>
    <g opacity=".499" transform="translate(0 208)">
      <path fill="url(#b)" d="M0,352 L1266.58908,352 C1275.42506,352 1282.58804,359.161501 1282.58804,368 L1282.58804,368 C1282.58804,376.836556 1275.43405,384 1266.58908,384 L0,384 L0,352 Z"/>
      <path fill="url(#b)" d="M0,352 L183.992272,352 C192.833096,352 200,359.161501 200,368 L200,368 C200,376.836556 192.837689,384 183.992272,384 L0,384 L0,352 Z"/>
      <path fill="url(#c)" d="M0,416 L209.99553,416 C218.834555,416 226,423.161501 226,432 L226,432 C226,440.836556 218.831483,448 209.99553,448 L0,448 L0,416 Z" opacity=".4"/>
      <path fill="url(#d)" d="M0,416 L495.004913,416 C503.838755,416 511,423.161501 511,432 L511,432 C511,440.836556 503.837384,448 495.004913,448 L0,448 L0,416 Z" opacity=".4"/>
      <path fill="url(#a)" d="M0,448 L104.002901,448 C112.837855,448 120,455.161501 120,464 L120,464 C120,472.836556 112.830587,480 104.002901,480 L0,480 L0,448 Z" opacity=".2"/>
      <path fill="url(#a)" d="M0,448 L239.493157,448 C248.333492,448 255.5,455.161501 255.5,464 L255.5,464 C255.5,472.836556 248.332521,480 239.493157,480 L0,480 L0,448 Z" opacity=".2"/>
      <path fill="url(#b)" d="M0,184 L1457.99537,184 C1466.83448,184 1474,191.161501 1474,200 L1474,200 C1474,208.836556 1466.82792,216 1457.99537,216 L0,216 L0,184 Z" opacity=".9"/>
      <path fill="url(#e)" d="M0,184 L593.004277,184 C601.838471,184 609,191.161501 609,200 L609,200 C609,208.836556 601.843593,216 593.004277,216 L0,216 L0,184 Z" opacity=".9"/>
      <path fill="url(#b)" d="M0,152 L1279.00651,152 C1287.83947,152 1295,159.161501 1295,168 L1295,168 C1295,176.836556 1287.8362,184 1279.00651,184 L0,184 L0,152 Z" opacity=".9"/>
      <path fill="url(#e)" d="M1.13686838e-13,92 L933.000663,92 C941.836853,92 949,99.1615011 949,108 L949,108 C949,116.836556 941.839726,124 933.000663,124 L1.13686838e-13,124 L1.13686838e-13,92 Z" opacity=".4"/>
      <path fill="url(#a)" d="M1.13686838e-13,32 L239.493157,32 C248.333492,32 255.5,39.1615011 255.5,48 L255.5,48 C255.5,56.836556 248.332521,64 239.493157,64 L1.13686838e-13,64 L1.13686838e-13,32 Z" style="mix-blend-mode:overlay" opacity=".4"/>
      <path fill="url(#a)" d="M1.13686838e-13,0 L131.006138,0 C139.839304,0 147,7.16150109 147,16 L147,16 C147,24.836556 139.835309,32 131.006138,32 L1.13686838e-13,32 L1.13686838e-13,0 Z" style="mix-blend-mode:overlay" opacity=".803"/>
      <path fill="url(#e)" d="M0,256 L703.994956,256 C712.834298,256 720,263.161501 720,272 L720,272 C720,280.836556 712.84479,288 703.994956,288 L0,288 L0,256 Z" opacity=".9"/>
      <path fill="url(#f)" d="M0,256 L223.997121,256 C232.835267,256 240,263.161501 240,272 L240,272 C240,280.836556 232.833581,288 223.997121,288 L0,288 L0,256 Z" opacity=".3" style="mix-blend-mode:overlay"/>
      <path fill="url(#b)" d="M0,480 L57.5062869,480 C66.3393707,480 73.5,487.161501 73.5,496 L73.5,496 C73.5,504.836556 66.3354701,512 57.5062869,512 L0,512 L0,480 Z"/>
      <path fill="url(#g)" d="M0,320 L328.994696,320 C337.834181,320 345,327.161501 345,336 L345,336 C345,344.836556 337.833832,352 328.994696,352 L0,352 L0,320 Z" opacity=".9"/>
      <path fill="url(#g)" d="M0,320 L628.000568,320 C636.83681,320 644,327.161501 644,336 L644,336 C644,344.836556 636.836514,352 628.000568,352 L0,352 L0,320 Z" opacity=".4"/>
      <path fill="url(#b)" d="M0,320 L1377.99894,320 C1386.83608,320 1394,327.161501 1394,336 L1394,336 C1394,344.836556 1386.83214,352 1377.99894,352 L0,352 L0,320 Z" opacity=".4"/>
    </g>
  </g>
</svg>

<svg xmlns="http://www.w3.org/2000/svg" width="1600" height="720" viewBox="0 0 1600 720">
    <defs>
        <linearGradient id="a" x1="0%" y1="50%" y2="50%">
            <stop stop-color="#89A0FF" stop-opacity="0" offset="0%"/>
            <stop stop-color="#89A0FF" offset="100%"/>
        </linearGradient>
        <linearGradient id="b" x1="100%" x2="0%" y1="100%" y2="100%">
            <stop stop-color="#00AEFF" offset="0%"/>
            <stop stop-color="#3369E6" offset="100%"/>
        </linearGradient>
        <linearGradient id="c" x1="95.122%" x2="0%" y1="100%" y2="100%">
            <stop stop-color="#00AEFF" offset="0%"/>
            <stop stop-color="#3369E6" offset="100%"/>
        </linearGradient>
        <linearGradient id="d" x1="98.973%" x2="0%" y1="100%" y2="100%">
            <stop stop-color="#00AEFF" offset="0%"/>
            <stop stop-color="#3369E6" offset="100%"/>
        </linearGradient>
        <linearGradient id="e" x1="100%" x2="1.736%" y1="97.763%" y2="96.745%">
            <stop stop-color="#00AEFF" offset="0%"/>
            <stop stop-color="#3369E6" offset="34.64%"/>
            <stop stop-color="#913FE6" offset="100%"/>
        </linearGradient>
        <linearGradient id="f" x1="14.764%" x2="94.5%" y1="50%" y2="50%">
            <stop stop-color="#FFF" stop-opacity="0" offset="0%"/>
            <stop stop-color="#FFF" offset="100%"/>
        </linearGradient>
        <linearGradient id="g" x1="100%" x2="1.736%" y1="2.447%" y2="96.745%">
            <stop stop-color="#00AEFF" offset="0%"/>
            <stop stop-color="#3369E6" offset="34.64%"/>
            <stop stop-color="#913FE6" offset="100%"/>
        </linearGradient>
    </defs>
    <g fill="none" fill-rule="evenodd">
        <g fill="url(#a)" fill-opacity=".1" transform="translate(31)">
            <path d="M6 392h1266.59c8.835 0 15.998 7.162 15.998 16 0 8.837-7.154 16-15.999 16H6v-32z"/>
            <path d="M368 392h183.992c8.841 0 16.008 7.162 16.008 16 0 8.837-7.162 16-16.008 16H368v-32zm0 160h252.327c8.84 0 16.006 7.162 16.006 16 0 8.837-7.16 16-16.006 16H368v-32z"/>
            <path d="M368 456h209.996c8.839 0 16.004 7.162 16.004 16 0 8.837-7.169 16-16.004 16H368v-32z" opacity=".4"/>
            <path d="M368 456h495.005c8.834 0 15.995 7.162 15.995 16 0 8.837-7.163 16-15.995 16H368v-32z" opacity=".4"/>
            <path d="M368 488h104.003c8.835 0 15.997 7.162 15.997 16 0 8.837-7.17 16-15.997 16H368v-32z" opacity=".2"/>
            <path d="M368 488h239.493c8.84 0 16.007 7.162 16.007 16 0 8.837-7.167 16-16.007 16H368v-32z" opacity=".2"/>
            <path d="M368 618h131.006c8.833 0 15.994 7.162 15.994 16 0 8.837-7.165 16-15.994 16H368v-32z"/>
            <path d="M368 64h310c8.837 0 16 7.162 16 16 0 8.837-7.17 16-16 16H368V64z" opacity=".9"/>
            <path d="M368 32h209.996C586.835 32 594 39.162 594 48c0 8.837-7.169 16-16.004 16H368V32z" opacity=".4"/>
            <path d="M368 0h84.003C460.838 0 468 7.162 468 16c0 8.837-7.172 16-15.997 16H368V0z" opacity=".2"/>
            <path d="M6 224h1457.995c8.84 0 16.005 7.162 16.005 16 0 8.837-7.172 16-16.005 16H6v-32z" opacity=".9"/>
            <path d="M368 224h495.005c8.834 0 15.995 7.162 15.995 16 0 8.837-7.163 16-15.995 16H368v-32zM0 256h1279.007c8.832 0 15.993 7.162 15.993 16 0 8.837-7.164 16-15.993 16H0v-32z" opacity=".9"/>
            <path d="M6 192h1368.009c8.831 0 15.991 7.162 15.991 16 0 8.837-7.157 16-15.991 16H6v-32z" opacity=".4"/>
            <path d="M368 160h1316.998c8.838 0 16.002 7.162 16.002 16 0 8.837-7.172 16-16.002 16H368v-32z" opacity=".2"/>
            <path d="M368 128h933c8.837 0 16 7.162 16 16 0 8.837-7.16 16-16 16H368v-32z" opacity=".4"/>
            <path d="M368 128h537.01c8.83 0 15.99 7.162 15.99 16 0 8.837-7.169 16-15.99 16H368v-32zm0 172h703.995c8.84 0 16.005 7.162 16.005 16 0 8.837-7.155 16-16.005 16H368v-32z" opacity=".9"/>
            <path d="M368 296h223.997c8.838 0 16.003 7.162 16.003 16 0 8.837-7.166 16-16.003 16H368v-32z" opacity=".3" style="mix-blend-mode:overlay"/>
            <path d="M368 520h306.004c8.835 0 15.996 7.162 15.996 16 0 8.837-7.158 16-15.996 16H368v-32z"/>
            <path d="M368 360h383.995c8.84 0 16.005 7.162 16.005 16 0 8.837-7.155 16-16.005 16H368v-32z" opacity=".9"/>
            <path d="M368 360h628c8.837 0 16 7.162 16 16 0 8.837-7.163 16-16 16H368v-32zM71 328h1377.999c8.837 0 16.001 7.162 16.001 16 0 8.837-7.168 16-16.001 16H71v-32z" opacity=".4"/>
        </g>
        <g opacity=".499">
            <path fill="url(#b)" d="M0 352h1266.59c8.835 0 15.998 7.162 15.998 16 0 8.837-7.154 16-15.999 16H0v-32z" transform="translate(-1 208)"/>
            <path fill="url(#b)" d="M0 352h183.992c8.841 0 16.008 7.162 16.008 16 0 8.837-7.162 16-16.008 16H0v-32z" transform="translate(-1 208)"/>
            <path fill="url(#c)" d="M0 416h209.996c8.839 0 16.004 7.162 16.004 16 0 8.837-7.169 16-16.004 16H0v-32z" opacity=".4" transform="translate(-1 208)"/>
            <path fill="url(#d)" d="M0 416h495.005c8.834 0 15.995 7.162 15.995 16 0 8.837-7.163 16-15.995 16H0v-32z" opacity=".4" transform="translate(-1 208)"/>
            <path fill="url(#a)" d="M0 448h104.003c8.835 0 15.997 7.162 15.997 16 0 8.837-7.17 16-15.997 16H0v-32z" opacity=".2" transform="translate(-1 208)"/>
            <path fill="url(#a)" d="M0 448h239.493c8.84 0 16.007 7.162 16.007 16 0 8.837-7.167 16-16.007 16H0v-32z" opacity=".2" transform="translate(-1 208)"/>
            <path fill="url(#b)" d="M0 184h1457.995c8.84 0 16.005 7.162 16.005 16 0 8.837-7.172 16-16.005 16H0v-32z" opacity=".9" transform="translate(-1 208)"/>
            <path fill="url(#e)" d="M0 184h593.004c8.834 0 15.996 7.162 15.996 16 0 8.837-7.156 16-15.996 16H0v-32z" opacity=".9" transform="translate(-1 208)"/>
            <path fill="url(#b)" d="M0 152h1279.007c8.832 0 15.993 7.162 15.993 16 0 8.837-7.164 16-15.993 16H0v-32z" opacity=".9" transform="translate(-1 208)"/>
            <path fill="url(#e)" d="M0 92h933c8.837 0 16 7.162 16 16 0 8.837-7.16 16-16 16H0V92z" opacity=".4" transform="translate(-1 208)"/>
            <path fill="url(#a)" d="M0 32h239.493c8.84 0 16.007 7.162 16.007 16 0 8.837-7.167 16-16.007 16H0V32z" style="mix-blend-mode:overlay" opacity=".4" transform="translate(-1 208)"/>
            <path fill="url(#a)" d="M0 0h131.006C139.84 0 147 7.162 147 16c0 8.837-7.165 16-15.994 16H0V0z" style="mix-blend-mode:overlay" opacity=".803" transform="translate(-1 208)"/>
            <path fill="url(#e)" d="M0 256h703.995c8.84 0 16.005 7.162 16.005 16 0 8.837-7.155 16-16.005 16H0v-32z" opacity=".9" transform="translate(-1 208)"/>
            <path fill="url(#f)" d="M0 256h223.997c8.838 0 16.003 7.162 16.003 16 0 8.837-7.166 16-16.003 16H0v-32z" opacity=".3" style="mix-blend-mode:overlay" transform="translate(-1 208)"/>
            <path fill="url(#b)" d="M0 480h57.506c8.833 0 15.994 7.162 15.994 16 0 8.837-7.165 16-15.994 16H0v-32z" transform="translate(-1 208)"/>
            <path fill="url(#g)" d="M0 320h328.995c8.84 0 16.005 7.162 16.005 16 0 8.837-7.166 16-16.005 16H0v-32z" opacity=".9" transform="translate(-1 208)"/>
            <path fill="url(#g)" d="M0 320h628c8.837 0 16 7.162 16 16 0 8.837-7.163 16-16 16H0v-32z" opacity=".4" transform="translate(-1 208)"/>
            <path fill="url(#b)" d="M0 320h1377.999c8.837 0 16.001 7.162 16.001 16 0 8.837-7.168 16-16.001 16H0v-32z" opacity=".4" transform="translate(-1 208)"/>
        </g>
    </g>
</svg>
